X: 4370
M: C|
L: 1/8
K: D
!f!A2 |\
d2d>d d2(A/B/c/d/) | e2e>e e2(de) |\
f2(ef) g2f2 | e2e>e e2A2 |\
d>dA>A F>FA>A | d>dA>A F>FA>A |\
d2d>f edef | d2d>d d2 :|
f2 |\
e>dc>B ABcA | d>cd>e defd |\
e>dc>B ABcA | d>cd>e defd |\
e2e>e edef | d2d>d d2 ||
!p!(fg) |\
a2a2 b2b2 | a3g f2a2 |\
g2g2 f2(af) | e2e>e e2e>f |\
g2 (g/f/e/d/) c2A2 | a>af>f d2A2 |\
f2fa gfed | a2a>a a2(gf) |
e>dc>B ABcA | d>cd>e defd |\
e>dc>B ABcA | d>cd>e defd |\
e2e>e edef | d2d>d d2 |]


